X:1
T:Title
%%score { ( 1 3 ) | ( 2 4 ) }
L:1/8
M:4/4
K:Eb
V:1 treble nm="Grand Piano"
V:3 treble 
V:2 bass 
V:4 bass 
V:1
 z4 z2[Q:1/4=100] E2 | E3 F GABc | B4 G4 | [EF]4 [EF]2 [EG]2 | [DF]6 E2 | E3 F GABc | B4 z4 | %7
 A3 B c[Ad][Ge][Ac] | [GB]4 G4 | F2 B2 c2 c2 | [DB]6 z2 | B4 z2 G[Ec] | B6 z2 | c4 B2 G2 | %14
 [DF]6 z2 | E4 EFGA | B4 c4 | [EB]2 [B,EG][G,E] [A,DF]2 [A,DF]2 |[M:3/4] [G,E]6 |] %19
V:2
 z4 z2 [E,G,B,]2 | [E,G,]3 [E,A,E] [E,B,E][E,F,E][E,G,E][E,A,E] | [E,G,E]4 [E,B,E]4 | %3
 [C,=A,]4 [F,A,]2 [F,A,]2 | [B,,B,]6 [E,G,]2 | [E,G,]3 [E,A,E] [E,B,E][E,CE][E,G,E][E,A,E] | %6
 [G,E]2 B,2 [E,C]2 [B,DE]2 | [A,CE]3 [G,B,E] [A,E][F,B,][E,B,][E,E] | [E,E]4 [E,B,E]4 | %9
 B,2- [G,B,=E]2 [F,=A,_E]2 [F,A,E]2 | [B,,B,]6 z2 | [E,G,E]4 G,2 B,[A,,A,] | [E,G,E]6 z2 | %13
 [E,A,E]4 [E,G,E]2 [E,B,E]2 | [B,,B,]6 z2 | [E,G,]4 [E,G,][E,A,E][E,B,E][E,CE] | E4- [A,,A,E]4 | %17
 [B,,G,]2 B,,B,, B,,2 B,,2 |[M:3/4] E,6 |] %19
V:3
 x8 | x8 | x8 | x8 | x8 | x8 | z2 G2 A2 G2 | x8 | x8 | x8 | x8 | z4 E4 | x8 | x8 | x8 | x8 | x8 | %17
 x8 |[M:3/4] x6 |] %19
V:4
 x8 | x8 | x8 | x8 | x8 | x8 | E,4 z4 | x8 | x8 | D,2 z2 z4 | x8 | z4 E,4 | x8 | x8 | x8 | x8 | %16
 [E,G,]4 z4 | x8 |[M:3/4] x6 |] %19

